V6_wwwroot/ptn/core/icons/fa6/svgs/solid/house-fire.svg

<svg xmlns="http://www.w3.org/2000/svg" viewBox="0 0 640 512"><!--! Font Awesome Free 6.4.2 by @fontawesome - https://fontawesome.com License - https://fontawesome.com/license/free (Icons: CC BY 4.0, Fonts: SIL OFL 1.1, Code: MIT License) Copyright 2023 Fonticons, Inc. --><path d="M288 350.1l0 1.9H256c-17.7 0-32 14.3-32 32v64 24c0 22.1-17.9 40-40 40H160 128.1c-1.5 0-3-.1-4.5-.2c-1.2 .1-2.4 .2-3.6 .2H104c-22.1 0-40-17.9-40-40V360c0-.9 0-1.9 .1-2.8V287.6H32c-18 0-32-14-32-32.1c0-9 3-17 10-24L266.4 8c7-7 15-8 22-8s15 2 21 7L447.3 128.1c-12.3-1-25 3-34.8 11.7c-35.4 31.6-65.6 67.7-87.3 102.8C304.3 276.5 288 314.9 288 350.1zM453.5 163.8c19.7 17.8 38.2 37 55.5 57.7c7.9-9.9 16.8-20.7 26.5-29.5c5.6-5.1 14.4-5.1 20 0c24.7 22.7 45.6 52.7 60.4 81.1c14.5 28 24.2 58.8 24.2 79C640 440 568.7 512 480 512c-89.7 0-160-72.1-160-159.8c0-26.4 12.7-60.7 32.4-92.6c20-32.4 48.1-66.1 81.4-95.8c2.8-2.5 6.4-3.8 10-3.7c3.5 0 7 1.3 9.8 3.8zM530 433c30-21 38-63 20-96c-2-4-4-8-7-12l-36 42s-58-74-62-79c-30 37-45 58-45 82c0 49 36 78 81 78c18 0 34-5 49-15z"/></svg>

<svg xmlns="http://www.w3.org/2000/svg" viewBox="0 0 640 512"><!--! Font Awesome Free 6.1.1 by @fontawesome - https://fontawesome.com License - https://fontawesome.com/license/free (Icons: CC BY 4.0, Fonts: SIL OFL 1.1, Code: MIT License) Copyright 2022 Fonticons, Inc. --><path d="M288 350.1L288 352H256C238.3 352 224 366.3 224 384V472C224 494.1 206.1 512 184 512H128.1C126.6 512 125.1 511.9 123.6 511.8C122.4 511.9 121.2 512 120 512H104C81.91 512 64 494.1 64 472V360C64 359.1 64.03 358.1 64.09 357.2V287.6H32.05C14.02 287.6 0 273.5 0 255.5C0 246.5 3.004 238.5 10.01 231.5L266.4 8.016C273.4 1.002 281.4 0 288.4 0C295.4 0 303.4 2.004 309.5 7.014L447.3 128.1C434.9 127.2 422.3 131.1 412.5 139.9C377.1 171.5 346.9 207.6 325.2 242.7C304.3 276.5 288 314.9 288 350.1H288zM509 221.5C516.9 211.6 525.8 200.8 535.5 191.1C541.1 186.9 549.9 186.9 555.5 192C580.2 214.7 601.1 244.7 615.8 273.2C630.4 301.2 640 329.9 640 350.1C640 437.9 568.7 512 480 512C390.3 512 320 437.8 320 350.1C320 323.7 332.7 291.5 352.4 259.5C372.4 227.2 400.5 193.4 433.8 163.7C439.4 158.7 447.1 158.8 453.5 163.8C473.3 181.6 491.8 200.7 509 221.5V221.5zM550 336.1C548 332.1 546 328.1 543 324.1L507 367C507 367 449 293 445 288C415 324.1 400 346 400 370C400 419 436 448 481 448C499 448 515 443 530 432.1C560 412 568 370 550 336.1z"/></svg>
